X: 19
T:The Swallowtail
N: page 5
N: heptatonic
R:Jig
C:Trad.
O:Ireland
M:6/8
L:1/8
Q:1/4=110
K:EDor
|EF|:"Em"GEE BEE|GEE BAG|"Bm"FDD "D"ADD|"G"ded "D"=cAF|"Em"GEE BEE|
GEE B2c|"G"ded "D"=cAF|"Em"GEE E3:||:"G"Bcd "Em"e2f|e2f edB|
"G"Bcd "Em"e2f|edB "D"d3|"G"Bcd "Em"efe|efe edB|"G"ded "D"=cAF|"Em"GEE E3:|

%%newpage

